!!!COM: Krebs, Johann Ludwig
!!!OTL: Fuga
!!!SCT: II.19
!!!SCA: Johann Ludwig Krebs, Sämtliche Orgelwerke. Herausgegeven von Gerhard Weinberger.
**kern	**kern	**kern	**kern	**kern
*MM76	*MM76	*MM76	*MM76	*MM76
*k[b-e-]	*k[b-e-]	*k[b-e-]	*k[b-e-]	*k[b-e-]
*M2/2	*M2/2	*M2/2	*M2/2	*M2/2
*tb32	*tb32	*tb32	*tb32	*tb32
=1	=1	=1	=1	=1
1r	2r	1r	1r	1r
.	2B-	.	.	.
=2	=2	=2	=2	=2
1r	2A-	2r	1r	1r
.	2c	2c	.	.
=3	=3	=3	=3	=3
1r	1B	2d	1r	1r
.	.	2f	.	.
=4	=4	=4	=4	=4
1r	[1c	1e	2r	1r
.	.	.	2b-	.
=5	=5	=5	=5	=5
1r	4c]	[1f	2a	1r
.	4F	.	.	.
.	2e-	.	2cc	.
=6	=6	=6	=6	=6
1r	2d	4f]	2b	1r
.	.	4a-	.	.
.	2d-	4g	2b-	.
.	.	[4f	.	.
=7	=7	=7	=7	=7
1r	2c	4f]	2a	1r
.	.	4e	.	.
.	2B	[2f	2a-	.
=8	=8	=8	=8	=8
1r	2c	4f]	1g	1r
.	.	8e	.	.
.	.	8d	.	.
.	2C	4e	.	.
.	.	4B-	.	.
=9	=9	=9	=9	=9
1r	4F	2A-	2f	2r
.	4E-	.	.	.
.	4D	2f	2a	2ee-
.	4C	.	.	.
=10	=10	=10	=10	=10
1r	2BB-	2f	2b-	2dd
.	2BB	2a-	2dd	2ff
=11	=11	=11	=11	=11
1r	4C	2g	2cc	2ee
.	4BB-	.	.	.
.	4C	2g-	2a	2ee-
.	4FF	.	.	.
=12	=12	=12	=12	=12
1r	2BB-	2f	2b-	2dd
.	2EE	2g	[2b-	2dd-
=13	=13	=13	=13	=13
1r	2FF	1f	4b-]	1cc
.	.	.	8a	.
.	.	.	8g	.
.	2F	.	2a	.
=14	=14	=14	=14	=14
1r	2E	2r	1r	1r
.	2E-	2c	.	.
=15	=15	=15	=15	=15
1r	2D	2B	2r	1r
.	2D-	[2B-	2f	.
=16	=16	=16	=16	=16
1r	2C	4B-]	2e	1r
.	.	4G	.	.
.	2C-	2A	2e-	.
=17	=17	=17	=17	=17
1r	1BB-	4B-	2d	2r
.	.	4F	.	.
.	.	4G-	2d-	2b-
.	.	4E	.	.
=18	=18	=18	=18	=18
1r	4F	[1F	2c	2a
.	4E-	.	.	.
.	4D-	.	4f	2a-
.	4C	.	4e-	.
=19	=19	=19	=19	=19
1r	2BB-	2F]	2d-	2g
.	2C	2E-	2e-	2g-
=20	=20	=20	=20	=20
1r	1D-	2A-	2d-	2f
.	.	4G	2b	2ff
.	.	4F	.	.
=21	=21	=21	=21	=21
1r	1C	4G	1cc	2ee
.	.	4B-	.	.
.	.	4A	.	2ee-
.	.	4F	.	.
=22	=22	=22	=22	=22
1r	4BB-	2B-	2f	2dd
.	4C	.	.	.
.	4D-	2B-	[2g	2dd-
.	4BB-	.	.	.
=23	=23	=23	=23	=23
1r	2F	2A	4g]	2cc
.	.	.	4f	.
.	2E-	2c	2r	2r
=24	=24	=24	=24	=24
1r	2D	1B	1r	1r
.	2F	.	.	.
=25	=25	=25	=25	=25
1r	1E	4B-	1r	1r
.	.	4d	.	.
.	.	4c	.	.
.	.	4B-	.	.
=26	=26	=26	=26	=26
1r	4F	2A	2r	2r
.	4E	.	.	.
.	4F	2r	2c	2e-
.	4F#	.	.	.
=27	=27	=27	=27	=27
1r	4G	1r	2B	2d
.	4F#	.	.	.
.	4G	.	[2d	2f
.	4G#	.	.	.
=28	=28	=28	=28	=28
1r	2A	1r	4d]	2.e
.	.	.	8c#	.
.	.	.	8B	.
.	2AA	.	2c#	.
.	.	.	.	4g
=29	=29	=29	=29	=29
1r	2D	1r	4d	2f#
.	.	.	4c	.
.	4E-	.	2B-	[2g
.	4D	.	.	.
=30	=30	=30	=30	=30
1r	2C	1r	4A	2g]
.	.	.	4e-	.
.	2D	.	4d	2f#
.	.	.	4c	.
=31	=31	=31	=31	=31
1r	2GG	1r	4B-	4g
.	.	.	4c	4a
.	4r	.	4d	[2b-
.	4D	.	4f	.
=32	=32	=32	=32	=32
1r	4E-	1r	2g	2b-]
.	4D	.	.	.
.	4E-	.	2c	2a
.	4F	.	.	.
=33	=33	=33	=33	=33
1r	2BB-	1r	2d	4b-
.	.	.	.	4cc#
.	4r	.	4r	[2dd
.	4F	.	4a	.
=34	=34	=34	=34	=34
1r	4G	1r	2b-	2dd]
.	4F	.	.	.
.	4G	.	2e	2cc#
.	4A	.	.	.
=35	=35	=35	=35	=35
1r	2D	1r	2f	4dd
.	.	.	.	4a
.	4r	.	4r	[2b-
.	4D	.	4f	.
=36	=36	=36	=36	=36
1r	4E-	1r	2g	2b-]
.	4D	.	.	.
.	4E-	.	2c	2a
.	4F	.	.	.
=37	=37	=37	=37	=37
1r	2BB-	1r	2d	4b-
.	.	.	.	4dd
.	4r	.	4r	[2ee-
.	4GG	.	4b-	.
=38	=38	=38	=38	=38
1r	4AA-	1r	2cc	2ee-]
.	4GG	.	.	.
.	4AA-	.	2f	2dd
.	4BB-	.	.	.
=39	=39	=39	=39	=39
1r	2EE-	1r	2g	4ee-
.	.	.	.	4b
.	4r	.	4r	[2cc
.	4E-	.	4g	.
=40	=40	=40	=40	=40
1r	4F	1r	2a-	2cc]
.	4E-	.	.	.
.	4F	.	2d	2b
.	4G	.	.	.
=41	=41	=41	=41	=41
1r	2C	1r	2e	4cc
.	.	.	.	4ee
.	4r	.	4r	[2ff
.	4A	.	4cc	.
=42	=42	=42	=42	=42
1r	4B-	1r	2dd	2ff]
.	4A	.	.	.
.	4B-	.	2g	2ee
.	4c	.	.	.
=43	=43	=43	=43	=43
1r	2F	1r	2a	4ff
.	.	.	.	4aa
.	4r	.	4r	[2bb-
.	4D	.	4ff	.
=44	=44	=44	=44	=44
1r	4E-	1r	2gg	2bb-]
.	4D	.	.	.
.	4E-	.	2cc	2aa
.	4F	.	.	.
=45	=45	=45	=45	=45
1r	2BB-	1r	4dd	8bb-
.	.	.	.	8dd
.	.	.	4r	8ee-
.	.	.	.	8ff
.	2B-	.	2r	8ee-
.	.	.	.	8dd
.	.	.	.	8cc
.	.	.	.	8b-
=46	=46	=46	=46	=46
1r	2A	1r	1r	8cc
.	.	.	.	8dd
.	.	.	.	8cc
.	.	.	.	8b-
.	2c	.	.	8a
.	.	.	.	8g
.	.	.	.	8f
.	.	.	.	8e-
=47	=47	=47	=47	=47
1r	1B	1r	1r	8d
.	.	.	.	8f
.	.	.	.	8g
.	.	.	.	8a-
.	.	.	.	8g
.	.	.	.	8f
.	.	.	.	8e-
.	.	.	.	8d
=48	=48	=48	=48	=48
1r	2c	1r	1r	8e-
.	.	.	.	8g
.	.	.	.	8a
.	.	.	.	8b-
.	2c#	.	.	8a
.	.	.	.	8g
.	.	.	.	8f
.	.	.	.	8e
=49	=49	=49	=49	=49
1r	1d	1r	2r	8f
.	.	.	.	8a
.	.	.	.	8b-
.	.	.	.	8a
.	.	.	2f	8g#
.	.	.	.	8b
.	.	.	.	8dd
.	.	.	.	8ff
=50	=50	=50	=50	=50
1r	1c#	1r	2e	8a
.	.	.	.	8b-
.	.	.	.	8a
.	.	.	.	8g#
.	.	.	2g	8a
.	.	.	.	8cc#
.	.	.	.	8ee
.	.	.	.	8gg
=51	=51	=51	=51	=51
1r	1c	1r	1f#	8dd
.	.	.	.	8ee-
.	.	.	.	8dd
.	.	.	.	8cc#
.	.	.	.	8dd
.	.	.	.	8a
.	.	.	.	8ee-
.	.	.	.	8cc
=52	=52	=52	=52	=52
1r	1B	1r	1f	8dd
.	.	.	.	8ee-
.	.	.	.	8dd
.	.	.	.	8cc
.	.	.	.	8dd
.	.	.	.	8g
.	.	.	.	8gg
.	.	.	.	8dd
=53	=53	=53	=53	=53
1r	2B-	1r	2e	8cc
.	.	.	.	8dd
.	.	.	.	8cc
.	.	.	.	8b-
.	2A	.	[2f	8cc
.	.	.	.	8gg
.	.	.	.	8ff
.	.	.	.	8ee-
=54	=54	=54	=54	=54
1r	2B-	1r	2f]	8dd
.	.	.	.	8ee-
.	.	.	.	8dd
.	.	.	.	8cc
.	2G	.	2r	8b-
.	.	.	.	8a
.	.	.	.	8g
.	.	.	.	8f
=55	=55	=55	=55	=55
1r	2c	1r	8e	1r
.	.	.	8f	.
.	.	.	8g	.
.	.	.	8f	.
.	2C	.	8e	.
.	.	.	8d	.
.	.	.	8c	.
.	.	.	8B-	.
=56	=56	=56	=56	=56
1r	2F	8A	1r	1r
.	.	8G	.	.
.	.	8A	.	.
.	.	8B-	.	.
.	2E-	8A	.	.
.	.	8B-	.	.
.	.	8c	.	.
.	.	8A	.	.
=57	=57	=57	=57	=57
1r	2D	8B	1r	1r
.	.	8A	.	.
.	.	8B	.	.
.	.	8c	.	.
.	2F	8B	.	.
.	.	8c	.	.
.	.	8d	.	.
.	.	8B	.	.
=58	=58	=58	=58	=58
1r	2E	8c	1r	1r
.	.	8e	.	.
.	.	8g	.	.
.	.	8f	.	.
.	2C	8e	.	.
.	.	8d	.	.
.	.	8c	.	.
.	.	8B-	.	.
=59	=59	=59	=59	=59
1r	2F	4A	1r	1r
.	.	4e-	.	.
.	2F#	4d	.	.
.	.	4c	.	.
=60	=60	=60	=60	=60
1r	4G	2B-	1r	1r
.	4A-	.	.	.
.	4G	2B	.	.
.	4F	.	.	.
=61	=61	=61	=61	=61
1r	2E-	4c	1r	1r
.	.	4d	.	.
.	2E	4c	.	.
.	.	4B-	.	.
=62	=62	=62	=62	=62
1r	4F	2A-	1r	1r
.	4G	.	.	.
.	4F	2A	.	.
.	4E-	.	.	.
=63	=63	=63	=63	=63
1r	2D-	4B-	1r	1r
.	.	4c	.	.
.	2D	4B-	.	.
.	.	4A-	.	.
=64	=64	=64	=64	=64
1r	2.E-	4G	1r	1r
.	.	4B-	.	.
.	.	2e-	.	.
.	8G	.	.	.
.	8E-	.	.	.
=65	=65	=65	=65	=65
1r	4F	2.d	1r	1r
.	4BB-	.	.	.
.	2A-	.	.	.
.	.	8f	.	.
.	.	8d	.	.
=66	=66	=66	=66	=66
1r	2G	2e-	2r	1r
.	2G-	2e	2b-	.
=67	=67	=67	=67	=67
1r	2F	2f	2a	2r
.	2F#	2A	2cc	2ee-
=68	=68	=68	=68	=68
1r	2.G	4B	1b	2dd
.	.	4d	.	.
.	.	[2g	.	2ff
.	4d	.	.	.
=69	=69	=69	=69	=69
1r	[1c	4g]	2.cc	2ee
.	.	8f	.	.
.	.	8g	.	.
.	.	4a-	.	2ee-
.	.	4g	4b-	.
=70	=70	=70	=70	=70
1r	2c]	4f	4a-	1dd
.	.	8e-	8g	.
.	.	8f	8a-	.
.	[2B-	4g	4b-	.
.	.	4f	4a-	.
=71	=71	=71	=71	=71
1r	2B-]	4e	4g	1cc
.	.	8d	8f	.
.	.	8e	8g	.
.	[2A-	4f	4a-	.
.	.	4e-	4g	.
=72	=72	=72	=72	=72
1r	2A-]	4d	4f	1b-
.	.	8c	8e-	.
.	.	8d	8f	.
.	2G[	4e-	4g	.
.	.	4d	4f	.
=73	=73	=73	=73	=73
1r	2G]	4c	4e-	1a-
.	.	8B-	8d	.
.	.	8c	8e-	.
.	[2F	4d	4f	.
.	.	4c	4e-	.
=74	=74	=74	=74	=74
1r	2F]	4B	4d	1g
.	.	8A	8c	.
.	.	8B	8d	.
.	[2E-	4c	4e-	.
.	.	4B-	4d	.
=75	=75	=75	=75	=75
1r	2E-]	4A	4c	1f
.	.	8G	8B-	.
.	.	8A	8c	.
.	2D	4B	4d	.
.	.	8A	8c	.
.	.	8B	8d	.
=76	=76	=76	=76	=76
1r	4C	4c	2.e-	4e-
.	4D	4B	.	4f
.	4E-	[2c	.	4g
.	4F	.	4d	4a-
=77	=77	=77	=77	=77
1r	2.E-	4c]	4c	4g
.	.	4d	4f	4b
.	.	[2e-	[2g	[2cc
.	4D	.	.	.
=78	=78	=78	=78	=78
1r	4E-	4e-]	4g]	4cc]
.	4A-	4d	4f	4b
.	4G	4e-	4g	4cc
.	4F	4f	4a-	4dd
=79	=79	=79	=79	=79
1r	2G	2e-	2g	2g
.	2GG	2d	2f	2g 2b
=80	=80	=80	=80	=80
1r	4C	2e-	2g	2cc
.	2c	.	.	.
.	.	2r	2c	2r
.	[4c	.	.	.
=81	=81	=81	=81	=81
1r	4c]	1r	2.d	1r
.	8B	.	.	.
.	8A	.	.	.
.	2B	.	.	.
.	.	.	4d	.
=82	=82	=82	=82	=82
1r	2c	1r	4e-	2r
.	.	.	8d	.
.	.	.	8c	.
.	2G	.	4e-	2e-
.	.	.	[4e-	.
=83	=83	=83	=83	=83
1r	2A-	1r	4e-]	2.f
.	.	.	8d	.
.	.	.	8c	.
.	2B-	.	4d	.
.	.	.	4d	4f
=84	=84	=84	=84	=84
1r	2E-	1r	4e-	2g
.	.	.	8g	.
.	.	.	8f#	.
.	2B-	.	4g	2g
.	.	.	[4g	.
=85	=85	=85	=85	=85
1r	2c	1r	4g]	2.a
.	.	.	8f#	.
.	.	.	8e	.
.	2d	.	4f#	.
.	.	.	4f#	4a
=86	=86	=86	=86	=86
1r	2G	1r	4g	2b-
.	.	.	8b-	.
.	.	.	8a	.
.	2D	.	4b-	2b-
.	.	.	[4b-	.
=87	=87	=87	=87	=87
1r	2E-	1r	4b-]	2.cc
.	.	.	8a	.
.	.	.	8g	.
.	2F	.	4a	.
.	.	.	4a	4cc
=88	=88	=88	=88	=88
1r	2BB-	1r	4b-	2dd
.	.	.	8dd	.
.	.	.	8cc#	.
.	2F	.	4dd	2dd
.	.	.	[4dd	.
=89	=89	=89	=89	=89
1r	2G	1r	4dd]	2.ee
.	.	.	8cc#	.
.	.	.	8b	.
.	2A	.	4cc#	.
.	.	.	4cc#	4ee
=90	=90	=90	=90	=90
1r	2D	1r	4dd	2ff
.	.	.	8ff	.
.	.	.	8ee	.
.	2A	.	4ff	2ff
.	.	.	[4ff	.
=91	=91	=91	=91	=91
1r	2B-	1r	4ff]	2.gg
.	.	.	8ee	.
.	.	.	8dd	.
.	2c	.	4ee	.
.	.	.	4ee	4gg
=92	=92	=92	=92	=92
1r	2F	2r	2ff	2aa
.	2r	2f	2r	2r
=93	=93	=93	=93	=93
1r	1r	2e	2r	1r
.	.	2g	2b-	.
=94	=94	=94	=94	=94
1r	1r	1f#	2a	1r
.	.	.	2cc	.
=95	=95	=95	=95	=95
1r	1r	4g	1b	2r
.	.	4f	.	.
.	.	4e	.	2ff
.	.	4d	.	.
=96	=96	=96	=96	=96
1r	1r	2c	2cc	2ee
.	.	2c#	2b-	2gg
=97	=97	=97	=97	=97
1r	1r	1d	4a	1ff#
.	.	.	4ee-	.
.	.	.	4dd	.
.	.	.	4cc	.
=98	=98	=98	=98	=98
1r	1r	1G	1b	4ff
.	.	.	.	4aa-
.	.	.	.	4gg
.	.	.	.	4ff
=99	=99	=99	=99	=99
1r	1r	1c	4b-	1ee
.	.	.	4dd-	.
.	.	.	4cc	.
.	.	.	4b-	.
=100	=100	=100	=100	=100
1r	1r	1F	1a	4ee-
.	.	.	.	4gg
.	.	.	.	4ff
.	.	.	.	4ee-
=101	=101	=101	=101	=101
2r	1r	2B-	2f	2dd
2BB-	.	2g	2dd-	2ee
=102	=102	=102	=102	=102
2AA	1r	2f	2cc	2ff
2C	.	2e-	2a	2ff#
=103	=103	=103	=103	=103
1BB	1r	[1d	1g	2gg
.	.	.	.	2ff
=104	=104	=104	=104	=104
2.C	1r	4d]	[1g	1eeT
.	.	8c	.	.
.	.	8B	.	.
.	.	2c	.	.
4C	.	.	.	.
=105	=105	=105	=105	=105
2G	1r	2B	2g]	2dd
2C#	.	2B-	2g	2ee
=106	=106	=106	=106	=106
2D	1r	2A	1f	2ff
2D-	.	2F	.	2b
=107	=107	=107	=107	=107
2C	1r	2G	2e	4cc
.	.	.	.	4b-
2D-	.	2F	[2f	2a-
=108	=108	=108	=108	=108
2BB-	1r	2d-	2f]	4g
.	.	.	.	4a
2C	.	2c	2e	2b-
=109	=109	=109	=109	=109
2F	1r	2c	2f	4a
.	.	.	.	8ff
.	.	.	.	8ee-
2r	.	2B-	2r	8dd
.	.	.	.	8cc
.	.	.	.	8dd
.	.	.	.	8b-
=110	=110	=110	=110	=110
1r	2r	2A	1r	8cc
.	.	.	.	8b-
.	.	.	.	8a
.	.	.	.	8g
.	2c	2e-	.	8f#
.	.	.	.	8g
.	.	.	.	8a
.	.	.	.	8f#
=111	=111	=111	=111	=111
1r	1B	2d	1r	8g
.	.	.	.	8f#
.	.	.	.	8g
.	.	.	.	8a
.	.	2f	.	8g
.	.	.	.	8b
.	.	.	.	8dd
.	.	.	.	8gg
=112	=112	=112	=112	=112
1r	1c	1e	1r	8b-
.	.	.	.	8a
.	.	.	.	8b-
.	.	.	.	8dd
.	.	.	.	8cc
.	.	.	.	8b-
.	.	.	.	8a
.	.	.	.	8g
=113	=113	=113	=113	=113
1r	[2F	2f	1r	4a
.	.	.	.	4cc
.	8F]	2a	.	[2ff
.	8E-	.	.	.
.	8F	.	.	.
.	8D	.	.	.
=114	=114	=114	=114	=114
1r	8G	2b-	1r	2ff]
.	8F	.	.	.
.	8G	.	.	.
.	8E-	.	.	.
.	8A	[2cc	.	2ee-
.	8G	.	.	.
.	8A	.	.	.
.	8F	.	.	.
=115	=115	=115	=115	=115
1r	8B-	2cc]	1r	1dd
.	8A	.	.	.
.	8B-	.	.	.
.	8G	.	.	.
.	8d	2b-	.	.
.	8c	.	.	.
.	8d	.	.	.
.	8B-	.	.	.
=116	=116	=116	=116	=116
1r	8f	2a	1r	2cc
.	8e	.	.	.
.	8f	.	.	.
.	8c	.	.	.
.	8d	2a-	.	[2b-
.	8c	.	.	.
.	8d	.	.	.
.	8B-	.	.	.
=117	=117	=117	=117	=117
1r	8e-	1g	1r	2b-]
.	8d	.	.	.
.	8e-	.	.	.
.	8B-	.	.	.
.	8c	.	.	[2a
.	8B-	.	.	.
.	8c	.	.	.
.	8A	.	.	.
=118	=118	=118	=118	=118
1r	8d	2f#	1r	2a]
.	8c	.	.	.
.	8d	.	.	.
.	8A	.	.	.
.	8B	2f	.	2a-
.	8A	.	.	.
.	8B	.	.	.
.	8G	.	.	.
=119	=119	=119	=119	=119
1r	8c	2e	1r	2g
.	8B	.	.	.
.	8c	.	.	.
.	8G	.	.	.
.	8A	2e-	.	2g-
.	8G	.	.	.
.	8A	.	.	.
.	8F	.	.	.
=120	=120	=120	=120	=120
1r	8B-	2d	1r	2f
.	8A	.	.	.
.	8B-	.	.	.
.	8F	.	.	.
.	8E-	2d	.	2b-
.	8D	.	.	.
.	8C	.	.	.
.	8BB-	.	.	.
=121	=121	=121	=121	=121
1r	8F	2c	2r	2a
.	8E	.	.	.
.	8F	.	.	.
.	8C	.	.	.
.	8A	2f	2cc	2ee-
.	8G	.	.	.
.	8A	.	.	.
.	8F	.	.	.
=122	=122	=122	=122	=122
1r	8B-	2f	2b-	2dd
.	8c	.	.	.
.	8B-	.	.	.
.	8A	.	.	.
.	8G	2g	2b	2ff
.	8F	.	.	.
.	8E-	.	.	.
.	8D	.	.	.
=123	=123	=123	=123	=123
1r	8C	2g	2cc	2ee
.	8BB	.	.	.
.	8C	.	.	.
.	8D	.	.	.
.	8E-	2g	2cc	2ee-
.	8D	.	.	.
.	8E-	.	.	.
.	8F	.	.	.
=124	=124	=124	=124	=124
1r	8G	2g	2b-	2dd
.	8F#	.	.	.
.	8G	.	.	.
.	8A	.	.	.
.	8B-	2a	2ee-	2gg
.	8A	.	.	.
.	8B-	.	.	.
.	8c	.	.	.
=125	=125	=125	=125	=125
1r	8d	2a	2dd	2ff#
.	8e-	.	.	.
.	8d	.	.	.
.	8c	.	.	.
.	8B	2a-	2dd	2ff
.	8A	.	.	.
.	8B	.	.	.
.	8G	.	.	.
=126	=126	=126	=126	=126
1r	8c	2g	2cc	2ee
.	8d	.	.	.
.	8c	.	.	.
.	8B-	.	.	.
.	8A	2g-	2cc	2ee-
.	8G	.	.	.
.	8A	.	.	.
.	8F	.	.	.
=127	=127	=127	=127	=127
1r	8B-	2f	2b-	2dd
.	8c	.	.	.
.	8B-	.	.	.
.	8A	.	.	.
.	8G	2g	2b-	2dd
.	8A	.	.	.
.	8G	.	.	.
.	8F	.	.	.
=128	=128	=128	=128	=128
1r	8E-	2g	2b-	2gg
.	8F	.	.	.
.	8E-	.	.	.
.	8D	.	.	.
.	8C	2g	2cc	2ee-
.	8D	.	.	.
.	8C	.	.	.
.	8BB-	.	.	.
=129	=129	=129	=129	=129
1r	8AA	2f	2cc	2ff
.	8BB-	.	.	.
.	8AA	.	.	.
.	8GG	.	.	.
.	8FF	2c	2f	2a
.	8GG	.	.	.
.	8FF	.	.	.
.	8EE-	.	.	.
=130	=130	=130	=130	=130
1r	2DD	2d	2f	2b-
.	4r	4r	4r	4r
.	4E-	4g	4b-	4gg
=131	=131	=131	=131	=131
1r	8F	2f	2b-	2dd
.	8E-	.	.	.
.	8D	.	.	.
.	8E-	.	.	.
.	4F	2e-	2a	2cc
.	4FF	.	.	.
=132	=132	=132	=132	=132
[1BB-	2r	2d	2f	2b-
.	2B-	2d	2f	2dd
=133	=133	=133	=133	=133
1BB-_	2A	2e-	2g-	2cc
.	2c	2g-	2a	2ee-
=134	=134	=134	=134	=134
1BB-_	1B	2f	2a-	2dd
.	.	2a-	2dd	2ff
=135	=135	=135	=135	=135
1BB-_	2B-	2g-	2b-	2ee-
.	2A-	2cc-	2dd	2ff
=136	=136	=136	=136	=136
1BB-_	2G-	2b-	2ee-	2gg-
.	2F	2cc-	2dd	2aa-
=137	=137	=137	=137	=137
1BB-_	2E-	2b-	2ee-	2gg-
.	2D	2cc-	2ff	2aa-
=138	=138	=138	=138	=138
1BB-_	4E-	1b-	[1ee-	[1gg-
.	4F	.	.	.
.	4G-	.	.	.
.	4E-	.	.	.
=139	=139	=139	=139	=139
1BB-_	1AT	1cc	1ee-]	1gg-]
=140	=140	=140	=140	=140
1BB-_	4B-	2b-	2dd	2ff
.	4c-	.	.	.
.	4B-	2dd	2ff	2bb-
.	4A-	.	.	.
=141	=141	=141	=141	=141
1BB-_	4G-	2cc	2ee-	2aa
.	4F	.	.	.
.	4G-	2ee-	2aa	2ccc
.	4E-	.	.	.
=142	=142	=142	=142	=142
1BB-_	4F	2dd	2aa-	2bb
.	4E-	.	.	.
.	4F	2dd	2ff 2aa-	2bb-
.	4D	.	.	.
=143	=143	=143	=143	=143
1BB-_	4E-	2cc	2ee- 2gg-	2aa
.	4G-	.	.	.
.	4F	2cc-	2dd 2ff	2aa-
.	4D	.	.	.
=144	=144	=144	=144	=144
1BB-_	4E-	2b-	2ee-	2gg-
.	4F	.	.	.
.	4G-	2cc	2ee- 2gg-	2aa
.	4E-	.	.	.
=145	=145	=145	=145	=145
1BB-]	1BB- 1D 1F	1B-	1dd 1ff	1bb-
==	==	==	==	==
*-	*-	*-	*-	*-
!!!ENC: Peter van Kranenburg (peter@musical-style-recognition.net)
!!!END: 2006-11-9
